X:1
T:Title
%%score { 1 | 2 }
L:1/8
Q:1/4=92
M:4/4
K:G
V:1 treble nm="Grand Piano"
V:2 bass 
V:1
 [B,G]>[B,G] [B,G]>[CA] [DB]2 [CA]2 | [B,G]>[A,F] [B,G]>[CE] [B,D]4 | F>F F>G A2 B2 | c>B A>^G A4 | %4
w: William~J.~Kirkpatrick * * * * *||||
 B>B B>c d2 B2 | [FA]>[=F^G] [^FA]>[=GB] [Ac]4 | B>A G<G [EGc]>[DEB] [CEA]<[EAc] | %7
w: |||
 [DGB]2 [CFA]2 [B,DG]4 | d<d d>d d4 | B<B B>B B4 | c>c c<c [FA]>[FA] [FA]<[FA] | B<c d>e d4 | %12
w: |||||
 [Ge]<[Ge] [Ge]>[Ge] [Ge]4 | d<d d>d d4 | [Fd]>[Fd] [FA]<[FA] Bc d<e | %15
w: |||
 [GB]<[GB] [FB]>[CFA] [B,DG]4 |] %16
w: |
V:2
 [G,,D,]>[G,,D,] [G,,D,]>[G,,D,] [G,,G,]2 [G,,D,]2 | [G,,D,]>[G,,D,] [G,,D,]>[G,,G,] [G,,G,]4 | %2
 [D,A,D]>[D,A,D] [D,A,D]>[D,B,D] [D,CD]2 [D,^G,D]2 | [D,A,D]>[E,G,D] [D,F,D]>[D,=F,D] [D,^F,D]4 | %4
 [G,D]>[G,D] [G,D]>[G,A,D] [G,B,D]2 [G,DG]2 | [D,D]>[D,D] [D,D]>[D,D] [D,D]4 | %6
 [G,DG]>[G,CD][K:bass] [G,B,D]<[G,B,D] C,>C, C,<C, | D,2 D,2 G,,4 | %8
 [G,B,G]<[G,B,G] [G,B,G]>[G,B,G] [G,B,G]4 | [G,DG]<[G,DG] [G,DG]>[G,DG] [G,DG]4 | %10
 [A,DF]>[A,DF] [A,DF]<[A,DF][K:bass] [D,D]>[D,C] [D,D]<[D,D] | %11
 [G,DG]<[G,EG] [G,B,G]>[G,CG] [G,B,G]4 | [C,C]<[C,C] [C,C]>[C,C] [C,C]4 | %13
 [G,B,G]<[G,B,G] [G,B,G]>[G,B,G] [G,B,G]4 | %14
 [D,A,]>[D,A,] [D,D]<[D,D][K:treble] [G,DG][G,EG] [G,B,G]<[G,CG] | [D,D]<[D,D] [D,D]>D, G,,4 |] %16

